; G-Code generated by Simplify3D(R) Version 4.1.2
; Mar 5, 2020 at 5:50:35 PM
; Settings Summary
;   processName,Process1
;   applyToModels,top
;   profileName,Ender 3 - pla 0.5 - drill_new_end_gcode (modified)
;   profileVersion,2020-02-19 00:36:38
;   baseProfile,Default (modified)
;   printMaterial,PLA
;   printQuality,Medium
;   printExtruders,
;   extruderName,Primary Extruder
;   extruderToolheadNumber,0
;   extruderDiameter,0.5
;   extruderAutoWidth,0
;   extruderWidth,0.5
;   extrusionMultiplier,1
;   extruderUseRetract,1
;   extruderRetractionDistance,6
;   extruderExtraRestartDistance,0
;   extruderRetractionZLift,0
;   extruderRetractionSpeed,1800
;   extruderUseCoasting,1
;   extruderCoastingDistance,0.4
;   extruderUseWipe,0
;   extruderWipeDistance,5
;   primaryExtruder,0
;   layerHeight,0.24
;   topSolidLayers,3
;   bottomSolidLayers,3
;   perimeterOutlines,3
;   printPerimetersInsideOut,1
;   startPointOption,2
;   startPointOriginX,20
;   startPointOriginY,9999
;   sequentialIslands,0
;   spiralVaseMode,0
;   firstLayerHeightPercentage,90
;   firstLayerWidthPercentage,100
;   firstLayerUnderspeed,0.3
;   useRaft,0
;   raftExtruder,0
;   raftTopLayers,3
;   raftBaseLayers,2
;   raftOffset,3
;   raftSeparationDistance,0.14
;   raftTopInfill,100
;   aboveRaftSpeedMultiplier,0.3
;   useSkirt,1
;   skirtExtruder,0
;   skirtLayers,1
;   skirtOutlines,3
;   skirtOffset,1
;   usePrimePillar,0
;   primePillarExtruder,999
;   primePillarWidth,12
;   primePillarLocation,7
;   primePillarSpeedMultiplier,1
;   useOozeShield,0
;   oozeShieldExtruder,999
;   oozeShieldOffset,2
;   oozeShieldOutlines,1
;   oozeShieldSidewallShape,1
;   oozeShieldSidewallAngle,30
;   oozeShieldSpeedMultiplier,1
;   infillExtruder,0
;   internalInfillPattern,Rectilinear
;   externalInfillPattern,Rectilinear
;   infillPercentage,15
;   outlineOverlapPercentage,40
;   infillExtrusionWidthPercentage,125
;   minInfillLength,5
;   infillLayerInterval,1
;   internalInfillAngles,45,-45
;   overlapInternalInfillAngles,0
;   externalInfillAngles,45,-45
;   generateSupport,1
;   supportExtruder,0
;   supportInfillPercentage,20
;   supportExtraInflation,1.4
;   supportBaseLayers,1
;   denseSupportExtruder,0
;   denseSupportLayers,0
;   denseSupportInfillPercentage,70
;   supportLayerInterval,1
;   supportHorizontalPartOffset,0.5
;   supportUpperSeparationLayers,1
;   supportLowerSeparationLayers,1
;   supportType,0
;   supportGridSpacing,3
;   maxOverhangAngle,59
;   supportAngles,0
;   temperatureName,Primary Extruder,Bed
;   temperatureNumber,0,0
;   temperatureSetpointCount,1,1
;   temperatureSetpointLayers,1,1
;   temperatureSetpointTemperatures,207,60
;   temperatureStabilizeAtStartup,1,1
;   temperatureHeatedBed,0,1
;   fanLayers,1,3
;   fanSpeeds,0,100
;   blipFanToFullPower,0
;   adjustSpeedForCooling,1
;   minSpeedLayerTime,15
;   minCoolingSpeedSlowdown,20
;   increaseFanForCooling,1
;   minFanLayerTime,30
;   maxCoolingFanSpeed,100
;   increaseFanForBridging,0
;   bridgingFanSpeed,100
;   use5D,1
;   relativeEdistances,0
;   allowEaxisZeroing,1
;   independentExtruderAxes,0
;   includeM10123,0
;   stickySupport,1
;   applyToolheadOffsets,0
;   gcodeXoffset,0
;   gcodeYoffset,0
;   gcodeZoffset,0
;   overrideMachineDefinition,1
;   machineTypeOverride,0
;   strokeXoverride,220
;   strokeYoverride,220
;   strokeZoverride,250
;   originOffsetXoverride,0
;   originOffsetYoverride,0
;   originOffsetZoverride,0
;   homeXdirOverride,-1
;   homeYdirOverride,-1
;   homeZdirOverride,-1
;   flipXoverride,1
;   flipYoverride,-1
;   flipZoverride,1
;   toolheadOffsets,0,0|0,0|0,0|0,0|0,0|0,0
;   overrideFirmwareConfiguration,0
;   firmwareTypeOverride,RepRap (Marlin/Repetier/Sprinter)
;   GPXconfigOverride,r2
;   baudRateOverride,115200
;   overridePrinterModels,0
;   printerModelsOverride
;   startingGcode,G28 ; home all axes,;G29; BLTOUCH mesh generation,G92 E0.0,,; You may want to adjust the X and Y here so the nozzle is really above the bed!,G1 X5.0 Y5.0 F7200 ; Move to a position in the left front of the bed,G1 Z0.6; Move nozzle above 0.6 mm of the bed,,,G91 ; Use relative mode,; Make some jerky zick-zack move at the beginning,; This is supposed to get rid of residue at the nozzle,G1 X1.0 Y5.0 Z-0.1 E-1.0 F7200 ; X6 Y10 Z0.1, retract a tiny bit / 120mm/s,G1 X1.0 Y-5.0 Z0.1 E2.0 F7200 ; X7 Y5 Z0.2 extrude a tiny bit,G1 X2.0 Y5.0 Z-0.1 F7200 ; X9 Y10 Z0.1,G1 X2.0 Y-5.0 Z0.1 F7200 ; X11 Y5 Z0.2,G1 X2.0 Y5.0 F7200 ; X13 Y10,G1 X2.0 Y-5.0 F7200 ; X15 Y5,,; now print a line of filament to prepare extrusion,G1 Y50 E20 F1000 ; prints a line in the front,G1 Y50 E40 F1000 ; prints a line in the front,,; Done with the dancing :),G92 E0 ; Set extrusion distance to 0,G90 ; switch back to absolute mode
;   layerChangeGcode,G4 P1,M73 P[progress]
;   retractionGcode,
;   toolChangeGcode,
;   endingGcode,; process ENDGCODE,M104 S0 ; kill extruder temperature,M140 S0 ; kill bed temperature,M107; kill fan,G91 ;relative positioning,G1 E-1 F300  ;retract the filament a bit before lifting the nozzle, to release some of the pressure,G1 Z+0.5 E-5 X-20 Y-20 F9000 ;move Z up a bit and retract filament even more,G28 X0 Y0 ; home X axis and y axis,;G1 Y150 F5000 ;move completed part out,G90 ;absolute positioning,;G1 Z180 F300 ; lower platform to bottom,M84 ; disable motors,M150 B0 P150 R0 U255 ; LED green,M300; beep,
;   exportFileFormat,gcode
;   celebration,0
;   celebrationSong,Random Song
;   postProcessing,
;   defaultSpeed,3600
;   outlineUnderspeed,0.5
;   solidInfillUnderspeed,0.8
;   supportUnderspeed,0.8
;   rapidXYspeed,6000
;   rapidZspeed,1002
;   minBridgingArea,50
;   bridgingExtraInflation,0
;   bridgingExtrusionMultiplier,1
;   bridgingSpeedMultiplier,1
;   useFixedBridgingAngle,0
;   fixedBridgingAngle,0
;   applyBridgingToPerimeters,0
;   filamentDiameters,1.75|1.75|1.75|1.75|1.75|1.75
;   filamentPricesPerKg,60|46|46|46|46|46
;   filamentDensities,1.25|1.25|1.25|1.25|1.25|1.25
;   useMinPrintHeight,0
;   minPrintHeight,0
;   useMaxPrintHeight,0
;   maxPrintHeight,5
;   useDiaphragm,0
;   diaphragmLayerInterval,20
;   robustSlicing,1
;   mergeAllIntoSolid,0
;   onlyRetractWhenCrossingOutline,1
;   retractBetweenLayers,1
;   useRetractionMinTravel,0
;   retractionMinTravel,3
;   retractWhileWiping,1
;   onlyWipeOutlines,1
;   avoidCrossingOutline,1
;   maxMovementDetourFactor,20
;   toolChangeRetractionDistance,12
;   toolChangeExtraRestartDistance,-0.5
;   toolChangeRetractionSpeed,600
;   externalThinWallType,0
;   internalThinWallType,1
;   thinWallAllowedOverlapPercentage,10
;   singleExtrusionMinLength,1
;   singleExtrusionMinPrintingWidthPercentage,50
;   singleExtrusionMaxPrintingWidthPercentage,200
;   singleExtrusionEndpointExtension,0.2
;   horizontalSizeCompensation,0
G90
M82
M106 S0
M140 S60
M190 S60
M104 S207 T0
M109 S207 T0
G28 ; home all axes
;G29; BLTOUCH mesh generation
G92 E0.0
; You may want to adjust the X and Y here so the nozzle is really above the bed!
G1 X5.0 Y5.0 F7200 ; Move to a position in the left front of the bed
G1 Z0.6; Move nozzle above 0.6 mm of the bed
G91 ; Use relative mode
; Make some jerky zick-zack move at the beginning
; This is supposed to get rid of residue at the nozzle
G1 X1.0 Y5.0 Z-0.1 E-1.0 F7200 ; X6 Y10 Z0.1
 retract a tiny bit / 120mm/s
G1 X1.0 Y-5.0 Z0.1 E2.0 F7200 ; X7 Y5 Z0.2 extrude a tiny bit
G1 X2.0 Y5.0 Z-0.1 F7200 ; X9 Y10 Z0.1
G1 X2.0 Y-5.0 Z0.1 F7200 ; X11 Y5 Z0.2
G1 X2.0 Y5.0 F7200 ; X13 Y10
G1 X2.0 Y-5.0 F7200 ; X15 Y5
; now print a line of filament to prepare extrusion
G1 Y50 E20 F1000 ; prints a line in the front
G1 Y50 E40 F1000 ; prints a line in the front
; Done with the dancing :)
G92 E0 ; Set extrusion distance to 0
G90 ; switch back to absolute mode
; process Process1
; layer 1, Z = 0.216
T0
G92 E0.0000
G1 E-6.0000 F1800
G4 P1
M73 P1
; feature skirt
; tool H0.216 W0.500
G1 Z0.216 F1002
G1 X76.750 Y68.068 F6000
G1 E0.0000 F1800
G92 E0.0000
G1 X78.068 Y66.750 E0.0837 F1080
G1 X141.932 Y66.750 E2.9513
G1 X143.250 Y68.068 E3.0350
G1 X143.250 Y99.270 E4.4360
G1 X141.932 Y100.588 E4.5197
G1 X132.006 Y100.588 E4.9653
G1 X131.565 Y100.603 E4.9852
G1 X130.654 Y100.723 E5.0264
G1 X129.766 Y100.961 E5.0677
G1 X129.421 Y101.090 E5.0842
G1 X128.597 Y101.497 E5.1255
G1 X127.863 Y101.987 E5.1651
G1 X127.172 Y102.593 E5.2064
G1 X126.921 Y102.862 E5.2229
G1 X126.361 Y103.591 E5.2642
G1 X125.901 Y104.387 E5.3055
G1 X125.750 Y104.722 E5.3220
G1 X125.454 Y105.593 E5.3633
G1 X125.282 Y106.458 E5.4029
G1 X125.219 Y107.412 E5.4458
G1 X125.219 Y121.438 E6.0756
G1 X123.882 Y122.759 E6.1600
G1 X122.589 Y122.743 E6.2181
G1 X122.339 Y122.763 E6.2293
G1 X122.093 Y122.805 E6.2405
G1 X121.851 Y122.870 E6.2518
G1 X121.616 Y122.956 E6.2630
G1 X121.390 Y123.063 E6.2742
G1 X121.175 Y123.191 E6.2855
G1 X120.972 Y123.337 E6.2967
G1 X120.783 Y123.502 E6.3080
G1 X120.610 Y123.683 E6.3192
G1 X120.454 Y123.878 E6.3304
G1 X120.317 Y124.088 E6.3417
G1 X120.199 Y124.308 E6.3529
G1 X120.102 Y124.539 E6.3641
G1 X120.026 Y124.778 E6.3754
G1 X119.973 Y125.022 E6.3866
G1 X119.941 Y125.270 E6.3978
G1 X119.933 Y125.520 E6.4091
G1 X119.947 Y125.770 E6.4203
G1 X119.984 Y126.018 E6.4316
G1 X120.043 Y126.261 E6.4428
G1 X120.124 Y126.498 E6.4540
G1 X120.227 Y126.726 E6.4653
G1 X120.350 Y126.944 E6.4765
G1 X120.492 Y127.150 E6.4877
G1 X120.652 Y127.342 E6.4990
G1 X120.829 Y127.519 E6.5102
G1 X121.021 Y127.679 E6.5215
G1 X121.227 Y127.821 E6.5327
G1 X121.446 Y127.944 E6.5439
G1 X121.674 Y128.046 E6.5552
G1 X121.911 Y128.127 E6.5664
G1 X122.154 Y128.186 E6.5776
G1 X122.402 Y128.223 E6.5889
G1 X122.651 Y128.237 E6.6001
G1 X122.901 Y128.228 E6.6113
G1 X123.150 Y128.196 E6.6226
G1 X123.394 Y128.142 E6.6338
G1 X123.633 Y128.067 E6.6451
G1 X123.863 Y127.969 E6.6563
G1 X124.084 Y127.851 E6.6675
G1 X124.293 Y127.714 E6.6788
G1 X124.489 Y127.558 E6.6900
G1 X124.670 Y127.385 E6.7012
G1 X124.834 Y127.196 E6.7125
G1 X124.980 Y126.993 E6.7237
G1 X125.107 Y126.777 E6.7350
G1 X125.214 Y126.551 E6.7462
G1 X125.301 Y126.316 E6.7574
G1 X125.365 Y126.075 E6.7687
G1 X125.407 Y125.828 E6.7799
G1 X125.427 Y125.578 E6.7911
G1 X125.423 Y125.328 E6.8024
G1 X125.282 Y123.981 E6.8632
G1 X126.623 Y122.493 E6.9531
G1 X141.932 Y122.493 E7.6405
G1 X143.250 Y123.811 E7.7242
G1 X143.250 Y151.932 E8.9869
G1 X141.932 Y153.250 E9.0706
G1 X78.068 Y153.250 E11.9381
G1 X76.750 Y151.932 E12.0218
G1 X76.750 Y68.068 E15.7874
G92 E0.0000
G1 E-6.0000 F1800
G1 X77.250 Y68.275 F6000
G1 E0.0000 F1800
G92 E0.0000
G1 X78.275 Y67.250 E0.0651 F1080
G1 X141.725 Y67.250 E2.9141
G1 X142.750 Y68.275 E2.9792
G1 X142.750 Y99.063 E4.3616
G1 X141.725 Y100.088 E4.4267
G1 X131.998 Y100.088 E4.8634
G1 X131.524 Y100.104 E4.8847
G1 X130.556 Y100.231 E4.9286
G1 X129.613 Y100.484 E4.9724
G1 X129.222 Y100.631 E4.9911
G1 X128.346 Y101.063 E5.0350
G1 X127.558 Y101.589 E5.0775
G1 X126.824 Y102.233 E5.1214
G1 X126.539 Y102.538 E5.1401
G1 X125.945 Y103.312 E5.1840
G1 X125.456 Y104.158 E5.2278
G1 X125.284 Y104.538 E5.2465
G1 X124.970 Y105.463 E5.2904
G1 X124.785 Y106.392 E5.3330
G1 X124.719 Y107.395 E5.3781
G1 X124.719 Y121.229 E5.9992
G1 X123.679 Y122.256 E6.0649
G1 X122.572 Y122.243 E6.1146
G1 X122.277 Y122.266 E6.1279
G1 X121.986 Y122.316 E6.1411
G1 X121.700 Y122.392 E6.1544
G1 X121.422 Y122.494 E6.1677
G1 X121.155 Y122.621 E6.1810
G1 X120.901 Y122.772 E6.1943
G1 X120.661 Y122.945 E6.2076
G1 X120.438 Y123.140 E6.2208
G1 X120.233 Y123.353 E6.2341
G1 X120.049 Y123.585 E6.2474
G1 X119.887 Y123.832 E6.2607
G1 X119.747 Y124.093 E6.2740
G1 X119.633 Y124.366 E6.2873
G1 X119.543 Y124.648 E6.3006
G1 X119.480 Y124.937 E6.3138
G1 X119.443 Y125.230 E6.3271
G1 X119.432 Y125.526 E6.3404
G1 X119.449 Y125.821 E6.3537
G1 X119.493 Y126.114 E6.3670
G1 X119.563 Y126.401 E6.3802
G1 X119.659 Y126.681 E6.3935
G1 X119.780 Y126.951 E6.4068
G1 X119.925 Y127.209 E6.4201
G1 X120.093 Y127.453 E6.4334
G1 X120.282 Y127.680 E6.4467
G1 X120.492 Y127.889 E6.4600
G1 X120.719 Y128.078 E6.4732
G1 X120.963 Y128.246 E6.4865
G1 X121.221 Y128.391 E6.4998
G1 X121.491 Y128.512 E6.5131
G1 X121.771 Y128.607 E6.5264
G1 X122.058 Y128.677 E6.5397
G1 X122.351 Y128.721 E6.5529
G1 X122.646 Y128.737 E6.5662
G1 X122.942 Y128.727 E6.5795
G1 X123.235 Y128.690 E6.5928
G1 X123.524 Y128.626 E6.6061
G1 X123.806 Y128.536 E6.6194
G1 X124.079 Y128.421 E6.6326
G1 X124.340 Y128.282 E6.6459
G1 X124.587 Y128.119 E6.6592
G1 X124.818 Y127.935 E6.6725
G1 X125.032 Y127.730 E6.6858
G1 X125.226 Y127.507 E6.6991
G1 X125.399 Y127.267 E6.7123
G1 X125.549 Y127.012 E6.7256
G1 X125.676 Y126.745 E6.7389
G1 X125.778 Y126.467 E6.7522
G1 X125.854 Y126.181 E6.7655
G1 X125.904 Y125.889 E6.7788
G1 X125.927 Y125.595 E6.7920
G1 X125.923 Y125.299 E6.8053
G1 X125.803 Y124.150 E6.8572
G1 X126.846 Y122.993 E6.9271
G1 X141.725 Y122.993 E7.5952
G1 X142.750 Y124.018 E7.6603
G1 X142.750 Y151.725 E8.9044
G1 X141.725 Y152.750 E8.9695
G1 X78.275 Y152.750 E11.8184
G1 X77.250 Y151.725 E11.8835
G1 X77.250 Y68.275 E15.6305
G92 E0.0000
G1 E-6.0000 F1800
G1 X77.750 Y68.482 F6000
G1 E0.0000 F1800
G92 E0.0000
G1 X78.482 Y67.750 E0.0465 F1080
G1 X141.518 Y67.750 E2.8769
G1 X142.250 Y68.482 E2.9234
G1 X142.250 Y98.856 E4.2872
G1 X141.518 Y99.588 E4.3337
G1 X131.990 Y99.588 E4.7615
G1 X131.483 Y99.605 E4.7843
G1 X130.458 Y99.740 E4.8307
G1 X129.459 Y100.007 E4.8771
G1 X129.023 Y100.172 E4.8980
G1 X128.096 Y100.629 E4.9445
G1 X127.253 Y101.192 E4.9900
G1 X126.476 Y101.874 E5.0364
G1 X126.157 Y102.214 E5.0573
G1 X125.528 Y103.034 E5.1037
G1 X125.011 Y103.930 E5.1502
G1 X124.818 Y104.354 E5.1711
G1 X124.486 Y105.333 E5.2175
G1 X124.288 Y106.327 E5.2630
G1 X124.219 Y107.379 E5.3104
G1 X124.219 Y121.020 E5.9228
G1 X123.476 Y121.754 E5.9697
G1 X122.556 Y121.743 E6.0111
G1 X122.215 Y121.769 E6.0264
G1 X121.879 Y121.827 E6.0417
G1 X121.549 Y121.915 E6.0571
G1 X121.229 Y122.033 E6.0724
G1 X120.920 Y122.179 E6.0877
G1 X120.626 Y122.353 E6.1031
G1 X120.349 Y122.553 E6.1184
G1 X120.092 Y122.778 E6.1337
G1 X119.856 Y123.024 E6.1491
G1 X119.643 Y123.292 E6.1644
G1 X119.456 Y123.577 E6.1797
G1 X119.295 Y123.878 E6.1951
G1 X119.163 Y124.193 E6.2104
G1 X119.060 Y124.518 E6.2257
G1 X118.986 Y124.852 E6.2410
G1 X118.944 Y125.191 E6.2564
G1 X118.932 Y125.532 E6.2717
G1 X118.951 Y125.873 E6.2870
G1 X119.002 Y126.210 E6.3024
G1 X119.083 Y126.542 E6.3177
G1 X119.193 Y126.865 E6.3330
G1 X119.333 Y127.177 E6.3484
G1 X119.500 Y127.474 E6.3637
G1 X119.694 Y127.755 E6.3790
G1 X119.913 Y128.018 E6.3944
G1 X120.154 Y128.259 E6.4097
G1 X120.417 Y128.477 E6.4250
G1 X120.698 Y128.671 E6.4404
G1 X120.996 Y128.838 E6.4557
G1 X121.307 Y128.977 E6.4710
G1 X121.631 Y129.088 E6.4863
G1 X121.962 Y129.168 E6.5017
G1 X122.300 Y129.219 E6.5170
G1 X122.641 Y129.238 E6.5323
G1 X122.982 Y129.226 E6.5477
G1 X123.321 Y129.183 E6.5630
G1 X123.654 Y129.109 E6.5783
G1 X123.980 Y129.006 E6.5937
G1 X124.294 Y128.873 E6.6090
G1 X124.595 Y128.712 E6.6243
G1 X124.881 Y128.524 E6.6396
G1 X125.148 Y128.312 E6.6550
G1 X125.394 Y128.075 E6.6703
G1 X125.618 Y127.818 E6.6856
G1 X125.818 Y127.541 E6.7010
G1 X125.992 Y127.247 E6.7163
G1 X126.138 Y126.938 E6.7316
G1 X126.255 Y126.618 E6.7470
G1 X126.343 Y126.288 E6.7623
G1 X126.401 Y125.951 E6.7776
G1 X126.427 Y125.611 E6.7930
G1 X126.423 Y125.269 E6.8083
G1 X126.323 Y124.320 E6.8512
G1 X127.068 Y123.493 E6.9011
G1 X141.518 Y123.493 E7.5499
G1 X142.250 Y124.225 E7.5964
G1 X142.250 Y151.518 E8.8219
G1 X141.518 Y152.250 E8.8684
G1 X78.482 Y152.250 E11.6988
G1 X77.750 Y151.518 E11.7452
G1 X77.750 Y68.482 E15.4736
G92 E0.0000
G1 E-6.0000 F1800
; feature inner perimeter
G1 X79.250 Y69.250 F6000
G1 X79.250 Y69.543
G1 X80.250 Y70.250
G1 E0.0000 F1800
G92 E0.0000
G1 X139.750 Y70.250 E2.6716 F810
G1 X139.750 Y97.088 E3.8767
G1 X131.949 Y97.088 E4.2270
G1 X131.299 Y97.110 E4.2562
G1 X130.632 Y97.175 E4.2863
G1 X129.970 Y97.285 E4.3164
G1 X129.316 Y97.437 E4.3465
G1 X128.431 Y97.706 E4.3881
G1 X128.610 Y97.241 E4.4104
G1 X128.764 Y96.700 E4.4357
G1 X128.872 Y96.131 E4.4617
G1 X129.119 Y96.157 E4.4729
G1 X129.744 Y96.174 E4.5010
G1 X130.369 Y96.145 E4.5290
G1 X130.989 Y96.068 E4.5571
G1 X131.602 Y95.945 E4.5852
