; G-Code generated by Simplify3D(R) Version 4.1.2
; Mar 5, 2020 at 3:32:52 PM
; Settings Summary
;   processName,Process1
;   applyToModels,bottom,top
;   profileName,Ender 3 - 0.5 PETG - 2020 (modified)
;   profileVersion,2020-02-19 23:11:34
;   baseProfile,Default (modified)
;   printMaterial,PETG
;   printQuality,Medium
;   printExtruders,
;   extruderName,Primary Extruder
;   extruderToolheadNumber,0
;   extruderDiameter,0.5
;   extruderAutoWidth,0
;   extruderWidth,0.5
;   extrusionMultiplier,1
;   extruderUseRetract,1
;   extruderRetractionDistance,6
;   extruderExtraRestartDistance,0
;   extruderRetractionZLift,0
;   extruderRetractionSpeed,1800
;   extruderUseCoasting,1
;   extruderCoastingDistance,0.4
;   extruderUseWipe,0
;   extruderWipeDistance,5
;   primaryExtruder,0
;   layerHeight,0.24
;   topSolidLayers,3
;   bottomSolidLayers,3
;   perimeterOutlines,3
;   printPerimetersInsideOut,1
;   startPointOption,2
;   startPointOriginX,100
;   startPointOriginY,0
;   sequentialIslands,0
;   spiralVaseMode,0
;   firstLayerHeightPercentage,90
;   firstLayerWidthPercentage,110
;   firstLayerUnderspeed,0.3
;   useRaft,0
;   raftExtruder,0
;   raftTopLayers,3
;   raftBaseLayers,2
;   raftOffset,3
;   raftSeparationDistance,0.14
;   raftTopInfill,100
;   aboveRaftSpeedMultiplier,0.3
;   useSkirt,1
;   skirtExtruder,0
;   skirtLayers,1
;   skirtOutlines,3
;   skirtOffset,0.2
;   usePrimePillar,0
;   primePillarExtruder,999
;   primePillarWidth,12
;   primePillarLocation,7
;   primePillarSpeedMultiplier,1
;   useOozeShield,0
;   oozeShieldExtruder,999
;   oozeShieldOffset,2
;   oozeShieldOutlines,1
;   oozeShieldSidewallShape,1
;   oozeShieldSidewallAngle,30
;   oozeShieldSpeedMultiplier,1
;   infillExtruder,0
;   internalInfillPattern,Rectilinear
;   externalInfillPattern,Rectilinear
;   infillPercentage,15
;   outlineOverlapPercentage,40
;   infillExtrusionWidthPercentage,125
;   minInfillLength,5
;   infillLayerInterval,1
;   internalInfillAngles,45,-45
;   overlapInternalInfillAngles,0
;   externalInfillAngles,45,-45
;   generateSupport,1
;   supportExtruder,0
;   supportInfillPercentage,30
;   supportExtraInflation,0
;   supportBaseLayers,1
;   denseSupportExtruder,0
;   denseSupportLayers,0
;   denseSupportInfillPercentage,70
;   supportLayerInterval,1
;   supportHorizontalPartOffset,0.3
;   supportUpperSeparationLayers,1
;   supportLowerSeparationLayers,1
;   supportType,1
;   supportGridSpacing,2.2
;   maxOverhangAngle,60
;   supportAngles,0
;   temperatureName,Primary Extruder,Bed
;   temperatureNumber,0,0
;   temperatureSetpointCount,1,1
;   temperatureSetpointLayers,1,1
;   temperatureSetpointTemperatures,237,70
;   temperatureStabilizeAtStartup,1,1
;   temperatureHeatedBed,0,1
;   fanLayers,1,3
;   fanSpeeds,0,60
;   blipFanToFullPower,0
;   adjustSpeedForCooling,1
;   minSpeedLayerTime,15
;   minCoolingSpeedSlowdown,20
;   increaseFanForCooling,1
;   minFanLayerTime,30
;   maxCoolingFanSpeed,100
;   increaseFanForBridging,1
;   bridgingFanSpeed,100
;   use5D,1
;   relativeEdistances,0
;   allowEaxisZeroing,1
;   independentExtruderAxes,0
;   includeM10123,0
;   stickySupport,1
;   applyToolheadOffsets,0
;   gcodeXoffset,0
;   gcodeYoffset,0
;   gcodeZoffset,0
;   overrideMachineDefinition,1
;   machineTypeOverride,0
;   strokeXoverride,220
;   strokeYoverride,220
;   strokeZoverride,250
;   originOffsetXoverride,0
;   originOffsetYoverride,0
;   originOffsetZoverride,0
;   homeXdirOverride,-1
;   homeYdirOverride,-1
;   homeZdirOverride,-1
;   flipXoverride,1
;   flipYoverride,-1
;   flipZoverride,1
;   toolheadOffsets,0,0|0,0|0,0|0,0|0,0|0,0
;   overrideFirmwareConfiguration,0
;   firmwareTypeOverride,RepRap (Marlin/Repetier/Sprinter)
;   GPXconfigOverride,r2
;   baudRateOverride,115200
;   overridePrinterModels,0
;   printerModelsOverride
;   startingGcode,G28 ; home all axes,;G29; BLTOUCH mesh generation,G92 E0.0,,; You may want to adjust the X and Y here so the nozzle is really above the bed!,G1 X5.0 Y5.0 F7200 ; Move to a position in the left front of the bed,G1 Z0.6; Move nozzle above 0.6 mm of the bed,,,G91 ; Use relative mode,; Make some jerky zick-zack move at the beginning,; This is supposed to get rid of residue at the nozzle,G1 X1.0 Y5.0 Z-0.1 E-1.0 F7200 ; X6 Y10 Z0.1, retract a tiny bit / 120mm/s,G1 X1.0 Y-5.0 Z0.1 E2.0 F7200 ; X7 Y5 Z0.2 extrude a tiny bit,G1 X2.0 Y5.0 Z-0.1 F7200 ; X9 Y10 Z0.1,G1 X2.0 Y-5.0 Z0.1 F7200 ; X11 Y5 Z0.2,G1 X2.0 Y5.0 F7200 ; X13 Y10,G1 X2.0 Y-5.0 F7200 ; X15 Y5,,; now print a line of filament to prepare extrusion,G1 Y50 E20 F1000 ; prints a line in the front,G1 Y50 E40 F1000 ; prints a line in the front,,; Done with the dancing :),G92 E0 ; Set extrusion distance to 0,G90 ; switch back to absolute mode
;   layerChangeGcode,G4 P1,M73 P[progress]
;   retractionGcode,
;   toolChangeGcode,
;   endingGcode,; process ENDGCODE,M104 S0 ; kill extruder temperature,M140 S0 ; kill bed temperature,M107; kill fan,G91 ;relative positioning,G1 E-1 F300  ;retract the filament a bit before lifting the nozzle, to release some of the pressure,G1 Z+0.5 E-5 X-20 Y-20 F9000 ;move Z up a bit and retract filament even more,G28 X0 Y0 ; home X axis and y axis,;G1 Y150 F5000 ;move completed part out,G90 ;absolute positioning,;G1 Z180 F300 ; lower platform to bottom,M84 ; disable motors,M150 B0 P150 R0 U255 ; LED green,M300; beep,
;   exportFileFormat,gcode
;   celebration,0
;   celebrationSong,Random Song
;   postProcessing,
;   defaultSpeed,3600
;   outlineUnderspeed,0.5
;   solidInfillUnderspeed,0.8
;   supportUnderspeed,0.8
;   rapidXYspeed,6000
;   rapidZspeed,1002
;   minBridgingArea,50
;   bridgingExtraInflation,0
;   bridgingExtrusionMultiplier,1
;   bridgingSpeedMultiplier,1
;   useFixedBridgingAngle,0
;   fixedBridgingAngle,0
;   applyBridgingToPerimeters,0
;   filamentDiameters,1.75|1.75|1.75|1.75|1.75|1.75
;   filamentPricesPerKg,60|46|46|46|46|46
;   filamentDensities,1.25|1.25|1.25|1.25|1.25|1.25
;   useMinPrintHeight,0
;   minPrintHeight,0
;   useMaxPrintHeight,0
;   maxPrintHeight,5
;   useDiaphragm,0
;   diaphragmLayerInterval,20
;   robustSlicing,1
;   mergeAllIntoSolid,0
;   onlyRetractWhenCrossingOutline,1
;   retractBetweenLayers,1
;   useRetractionMinTravel,0
;   retractionMinTravel,3
;   retractWhileWiping,1
;   onlyWipeOutlines,1
;   avoidCrossingOutline,1
;   maxMovementDetourFactor,20
;   toolChangeRetractionDistance,12
;   toolChangeExtraRestartDistance,-0.5
;   toolChangeRetractionSpeed,600
;   externalThinWallType,0
;   internalThinWallType,1
;   thinWallAllowedOverlapPercentage,10
;   singleExtrusionMinLength,1
;   singleExtrusionMinPrintingWidthPercentage,50
;   singleExtrusionMaxPrintingWidthPercentage,200
;   singleExtrusionEndpointExtension,0.2
;   horizontalSizeCompensation,0
G90
M82
M106 S0
M140 S70
M190 S70
M104 S237 T0
M109 S237 T0
G28 ; home all axes
;G29; BLTOUCH mesh generation
G92 E0.0
; You may want to adjust the X and Y here so the nozzle is really above the bed!
G1 X5.0 Y5.0 F7200 ; Move to a position in the left front of the bed
G1 Z0.6; Move nozzle above 0.6 mm of the bed
G91 ; Use relative mode
; Make some jerky zick-zack move at the beginning
; This is supposed to get rid of residue at the nozzle
G1 X1.0 Y5.0 Z-0.1 E-1.0 F7200 ; X6 Y10 Z0.1
 retract a tiny bit / 120mm/s
G1 X1.0 Y-5.0 Z0.1 E2.0 F7200 ; X7 Y5 Z0.2 extrude a tiny bit
G1 X2.0 Y5.0 Z-0.1 F7200 ; X9 Y10 Z0.1
G1 X2.0 Y-5.0 Z0.1 F7200 ; X11 Y5 Z0.2
G1 X2.0 Y5.0 F7200 ; X13 Y10
G1 X2.0 Y-5.0 F7200 ; X15 Y5
; now print a line of filament to prepare extrusion
G1 Y50 E20 F1000 ; prints a line in the front
G1 Y50 E40 F1000 ; prints a line in the front
; Done with the dancing :)
G92 E0 ; Set extrusion distance to 0
G90 ; switch back to absolute mode
; process Process1
; layer 1, Z = 0.216
T0
G92 E0.0000
G1 E-6.0000 F1800
G4 P1
M73 P1
; feature skirt
; tool H0.216 W0.550
G1 Z0.216 F1002
G1 X44.848 Y67.425 F6000
G1 E0.0000 F1800
G92 E0.0000
G1 X108.152 Y67.425 E3.1267 F1080
G1 X109.075 Y68.348 E3.1912
G1 X109.075 Y151.652 E7.3057
G1 X108.152 Y152.575 E7.3701
G1 X44.848 Y152.575 E10.4968
G1 X43.925 Y151.652 E10.5613
G1 X43.925 Y68.348 E14.6758
G1 X44.848 Y67.425 E14.7403
G92 E0.0000
G1 E-6.0000 F1800
G1 X45.075 Y67.975 F6000
G1 E0.0000 F1800
G92 E0.0000
G1 X107.925 Y67.975 E3.1042 F1080
G1 X108.525 Y68.575 E3.1461
G1 X108.525 Y151.425 E7.2382
G1 X107.925 Y152.025 E7.2801
G1 X45.075 Y152.025 E10.3843
G1 X44.475 Y151.425 E10.4262
G1 X44.475 Y68.575 E14.5183
G1 X45.075 Y67.975 E14.5602
G92 E0.0000
G1 E-6.0000 F1800
G1 X45.303 Y68.525 F6000
G1 E0.0000 F1800
G92 E0.0000
G1 X107.697 Y68.525 E3.0817 F1080
G1 X107.975 Y68.803 E3.1011
G1 X107.975 Y151.197 E7.1707
G1 X107.697 Y151.475 E7.1901
G1 X45.303 Y151.475 E10.2718
G1 X45.025 Y151.197 E10.2912
G1 X45.025 Y68.803 E14.3607
G1 X45.303 Y68.525 E14.3802
G92 E0.0000
G1 E-6.0000 F1800
G1 X111.848 Y67.425 F6000
G1 E0.0000 F1800
G92 E0.0000
G1 X175.152 Y67.425 E3.1267 F1080
G1 X176.075 Y68.348 E3.1912
G1 X176.075 Y98.991 E4.7046
G1 X175.152 Y99.913 E4.7691
G1 X160.377 Y99.913 E5.4989
G1 X159.438 Y98.858 E5.5686
G1 X159.598 Y97.479 E5.6372
G1 X159.529 Y96.001 E5.7103
G1 X160.768 Y94.999 E5.7890
G1 X161.995 Y95.320 E5.8516
G1 X162.400 Y95.393 E5.8720
G1 X162.809 Y95.436 E5.8923
G1 X163.221 Y95.448 E5.9126
G1 X163.632 Y95.428 E5.9330
G1 X164.041 Y95.377 E5.9533
G1 X164.445 Y95.295 E5.9737
G1 X164.840 Y95.183 E5.9940
G1 X165.227 Y95.041 E6.0143
G1 X165.602 Y94.871 E6.0347
G1 X165.963 Y94.672 E6.0550
G1 X166.307 Y94.447 E6.0753
G1 X166.634 Y94.196 E6.0957
G1 X166.940 Y93.921 E6.1160
G1 X167.225 Y93.623 E6.1363
G1 X167.486 Y93.305 E6.1567
G1 X167.723 Y92.968 E6.1770
G1 X167.933 Y92.614 E6.1974
G1 X168.116 Y92.245 E6.2177
G1 X168.270 Y91.863 E6.2380
G1 X168.395 Y91.471 E6.2584
G1 X168.489 Y91.070 E6.2787
G1 X168.553 Y90.663 E6.2990
G1 X168.586 Y90.253 E6.3194
G1 X168.588 Y89.841 E6.3397
G1 X168.559 Y89.430 E6.3600
G1 X168.498 Y89.023 E6.3804
G1 X168.407 Y88.622 E6.4007
G1 X168.285 Y88.228 E6.4211
G1 X168.134 Y87.845 E6.4414
G1 X167.955 Y87.474 E6.4617
G1 X167.747 Y87.119 E6.4821
G1 X167.514 Y86.780 E6.5024
G1 X167.255 Y86.459 E6.5228
G1 X166.973 Y86.159 E6.5431
G1 X166.669 Y85.882 E6.5634
G1 X166.344 Y85.628 E6.5838
G1 X166.002 Y85.400 E6.6041
G1 X165.643 Y85.198 E6.6244
G1 X165.270 Y85.024 E6.6448
G1 X164.884 Y84.879 E6.6651
G1 X164.489 Y84.764 E6.6855
G1 X164.086 Y84.678 E6.7058
G1 X163.678 Y84.624 E6.7261
G1 X163.267 Y84.601 E6.7465
G1 X162.855 Y84.609 E6.7668
G1 X162.445 Y84.648 E6.7871
G1 X162.040 Y84.719 E6.8075
G1 X160.744 Y85.046 E6.8735
G1 X159.487 Y83.859 E6.9589
G1 X159.722 Y82.637 E7.0203
G1 X159.752 Y82.331 E7.0355
G1 X159.755 Y82.023 E7.0507
G1 X159.731 Y81.716 E7.0659
G1 X159.679 Y81.412 E7.0812
G1 X159.600 Y81.115 E7.0964
G1 X159.494 Y80.825 E7.1116
G1 X159.363 Y80.547 E7.1268
G1 X159.207 Y80.281 E7.1420
G1 X159.028 Y80.030 E7.1572
G1 X158.827 Y79.797 E7.1724
G1 X158.606 Y79.582 E7.1876
G1 X158.367 Y79.388 E7.2029
G1 X158.111 Y79.217 E7.2181
G1 X157.841 Y79.069 E7.2333
G1 X157.559 Y78.946 E7.2485
G1 X157.266 Y78.849 E7.2637
G1 X156.966 Y78.778 E7.2789
G1 X156.661 Y78.735 E7.2941
G1 X156.354 Y78.719 E7.3094
G1 X156.046 Y78.732 E7.3246
G1 X155.741 Y78.771 E7.3398
G1 X155.440 Y78.838 E7.3550
G1 X155.146 Y78.932 E7.3702
G1 X154.863 Y79.052 E7.3854
G1 X154.591 Y79.196 E7.4006
G1 X154.333 Y79.365 E7.4159
G1 X154.091 Y79.556 E7.4311
G1 X153.868 Y79.768 E7.4463
G1 X153.665 Y79.999 E7.4615
G1 X153.483 Y80.248 E7.4767
G1 X153.324 Y80.512 E7.4919
G1 X153.190 Y80.789 E7.5071
G1 X153.081 Y81.077 E7.5223
G1 X152.998 Y81.374 E7.5376
G1 X152.943 Y81.677 E7.5528
G1 X152.914 Y81.984 E7.5680
G1 X152.914 Y82.292 E7.5832
G1 X152.941 Y82.599 E7.5984
G1 X152.996 Y82.902 E7.6136
G1 X153.078 Y83.199 E7.6288
G1 X153.186 Y83.487 E7.6441
G1 X153.319 Y83.765 E7.6593
G1 X153.477 Y84.029 E7.6745
G1 X153.658 Y84.278 E7.6897
G1 X153.861 Y84.510 E7.7049
G1 X154.084 Y84.723 E7.7201
G1 X154.325 Y84.915 E7.7353
G1 X154.582 Y85.084 E7.7505
G1 X154.854 Y85.229 E7.7657
G1 X155.137 Y85.350 E7.7810
G1 X155.430 Y85.445 E7.7962
G1 X155.731 Y85.513 E7.8114
G1 X156.036 Y85.553 E7.8266
G1 X156.344 Y85.566 E7.8418
G1 X157.586 Y85.507 E7.9032
G1 X158.583 Y86.919 E7.9886
G1 X158.073 Y88.161 E8.0549
G1 X157.945 Y88.559 E8.0756
G1 X157.848 Y88.965 E8.0962
G1 X157.782 Y89.377 E8.1168
G1 X157.748 Y89.793 E8.1374
G1 X157.747 Y90.212 E8.1581
G1 X157.777 Y90.628 E8.1787
G1 X157.840 Y91.041 E8.1993
G1 X157.934 Y91.448 E8.2200
G1 X158.321 Y92.681 E8.2838
G1 X157.335 Y93.977 E8.3642
G1 X156.142 Y93.937 E8.4232
G1 X155.835 Y93.954 E8.4384
G1 X155.530 Y93.999 E8.4536
G1 X155.230 Y94.071 E8.4688
G1 X154.938 Y94.170 E8.4840
G1 X154.657 Y94.295 E8.4993
G1 X154.387 Y94.444 E8.5145
G1 X154.132 Y94.617 E8.5297
G1 X153.894 Y94.812 E8.5449
G1 X153.674 Y95.028 E8.5601
G1 X153.475 Y95.263 E8.5753
G1 X153.297 Y95.514 E8.5905
G1 X153.143 Y95.781 E8.6058
G1 X153.013 Y96.060 E8.6210
G1 X152.909 Y96.351 E8.6362
G1 X152.865 Y96.522 E8.6450
G1 X152.865 Y98.199 E8.7278
G1 X152.899 Y98.332 E8.7345
G1 X153.154 Y98.958 E8.7679
G1 X153.270 Y99.160 E8.7795
G1 X153.681 Y99.697 E8.8129
G1 X153.846 Y99.862 E8.8244
G1 X154.355 Y100.251 E8.8560
G1 X154.894 Y100.528 E8.8860
G1 X155.507 Y100.715 E8.9176
G1 X155.738 Y100.753 E8.9291
G1 X157.156 Y100.797 E8.9992
G1 X158.044 Y101.714 E9.0623
G1 X158.044 Y121.156 E10.0225
G1 X157.108 Y122.080 E10.0876
G1 X156.066 Y122.068 E10.1390
G1 X155.756 Y122.092 E10.1544
G1 X155.448 Y122.145 E10.1698
G1 X155.147 Y122.225 E10.1852
G1 X154.855 Y122.333 E10.2006
G1 X154.573 Y122.467 E10.2160
G1 X154.305 Y122.625 E10.2314
G1 X154.052 Y122.808 E10.2468
G1 X153.817 Y123.013 E10.2622
G1 X153.601 Y123.238 E10.2776
G1 X153.407 Y123.482 E10.2930
G1 X153.236 Y123.743 E10.3084
G1 X153.089 Y124.018 E10.3238
G1 X152.968 Y124.305 E10.3392
G1 X152.874 Y124.602 E10.3546
G1 X152.807 Y124.907 E10.3700
G1 X152.768 Y125.216 E10.3854
G1 X152.757 Y125.528 E10.4008
G1 X152.775 Y125.839 E10.4162
G1 X152.821 Y126.148 E10.4316
G1 X152.895 Y126.451 E10.4470
G1 X152.996 Y126.746 E10.4624
G1 X153.124 Y127.030 E10.4778
G1 X153.276 Y127.302 E10.4932
G1 X153.453 Y127.558 E10.5086
G1 X153.653 Y127.798 E10.5240
G1 X153.873 Y128.018 E10.5394
G1 X154.113 Y128.218 E10.5548
G1 X154.370 Y128.395 E10.5702
G1 X154.642 Y128.547 E10.5856
G1 X154.927 Y128.675 E10.6010
G1 X155.221 Y128.775 E10.6164
G1 X155.525 Y128.849 E10.6318
G1 X155.833 Y128.895 E10.6472
G1 X156.144 Y128.912 E10.6626
G1 X156.456 Y128.901 E10.6780
G1 X156.765 Y128.862 E10.6934
G1 X157.070 Y128.795 E10.7088
G1 X157.367 Y128.700 E10.7242
G1 X157.654 Y128.579 E10.7396
G1 X157.929 Y128.432 E10.7550
G1 X158.190 Y128.261 E10.7704
G1 X158.433 Y128.067 E10.7858
G1 X158.659 Y127.851 E10.8012
G1 X158.863 Y127.616 E10.8166
G1 X159.046 Y127.363 E10.8320
G1 X159.204 Y127.094 E10.8474
G1 X159.338 Y126.813 E10.8628
G1 X159.445 Y126.520 E10.8782
G1 X159.525 Y126.218 E10.8936
G1 X159.578 Y125.911 E10.9090
G1 X159.602 Y125.600 E10.9244
G1 X159.598 Y125.288 E10.9398
G1 X159.485 Y124.210 E10.9934
G1 X160.423 Y123.168 E11.0626
G1 X175.152 Y123.168 E11.7901
G1 X176.075 Y124.091 E11.8546
G1 X176.075 Y151.652 E13.2159
G1 X175.152 Y152.575 E13.2803
G1 X111.848 Y152.575 E16.4070
G1 X110.925 Y151.652 E16.4715
G1 X110.925 Y68.348 E20.5860
G1 X111.848 Y67.425 E20.6504
G92 E0.0000
G1 E-6.0000 F1800
G1 X112.075 Y67.975 F6000
G1 E0.0000 F1800
G92 E0.0000
G1 X174.925 Y67.975 E3.1042 F1080
G1 X175.525 Y68.575 E3.1461
G1 X175.525 Y98.763 E4.6371
G1 X174.925 Y99.363 E4.6791
G1 X160.624 Y99.363 E5.3854
G1 X160.013 Y98.677 E5.4308
G1 X160.150 Y97.498 E5.4894
G1 X160.092 Y96.254 E5.5509
G1 X160.898 Y95.601 E5.6022
G1 X161.876 Y95.857 E5.6521
G1 X162.322 Y95.938 E5.6745
G1 X162.773 Y95.985 E5.6969
G1 X163.226 Y95.998 E5.7193
G1 X163.679 Y95.976 E5.7417
G1 X164.129 Y95.920 E5.7641
G1 X164.574 Y95.830 E5.7865
G1 X165.010 Y95.707 E5.8089
G1 X165.436 Y95.551 E5.8313
G1 X165.849 Y95.363 E5.8537
G1 X166.246 Y95.144 E5.8761
G1 X166.626 Y94.895 E5.8985
G1 X166.985 Y94.619 E5.9209
G1 X167.323 Y94.316 E5.9433
G1 X167.637 Y93.988 E5.9657
G1 X167.924 Y93.638 E5.9881
G1 X168.185 Y93.267 E6.0105
